X: 738
T: Yaodong baowei chan
L: 1/8
M: 2/4
K: G
d2d e [I:setbarnb 1]| 
d2A2 | 
d2B e | 
d4 | 
d3A | 
d2B A | 
BG2A | 
G4 | 
A Bd2 | 
e d B A | 
d3G | 
A B A G | 
A3G | 
D2F E | 
D3E | 
D4 |]

@@@ Tune index: 9612
